X: 21617
T: Killavil Postman, The
R: barndance
M: 4/4
K: Dmajor
F>G|A2 d2 d>ed>B|A>BA>F E>DE>F|D2 D2- D2 E2|F4- F2 (3EFG|
A2 d2 d2- d>B|A>BA>F E>DE>F|e2 e2- e2 f2|B4- B2 A>G|
A2 d2 d>ed>B|A>BA>F E>DE>F|D2 D2- D2 E2|F4- F2 A2|
B2 B2 G>F E2|A2 A2 F>ED3/2[B,/B/]|[A,2A2] D2- D2 E2|D4- D2||
d>e|f2 f2 d>c B2|f2 f2 d>c B2|f2 f2- f2 g2|f4- f2 d2|
e2 e2 c>B A2|e2 e2 c>BA>c|e2 e2- e2 f2|B4- B2 d>e|
f2 f2 d>c (3Bcd|f2 f2 d>c B2|f2 f2- f2 g2|f4- f2 d2|
f>d f2 e>c e2|d>B d2 c4|c>de>d c>de>d|c2 (3BcB A2||

